src/assets/images/blogs/rocketBlog.svg

<svg width="24" height="24" viewBox="0 0 24 24" fill="none" xmlns="http://www.w3.org/2000/svg">
<g clip-path="url(#clip0_3041_18044)">
<path d="M0.707031 13.449L3.77078 10.4302L8.98703 9.50586L8.47141 12.2359L1.41953 14.4034L0.963906 14.2065L0.707031 13.449Z" fill="#CA2C31"/>
<path d="M4.30086 11.2045L0.974609 14.227L3.42148 15.4195L7.13586 13.5239V12.6295L7.89523 10.582L4.30086 11.2045ZM12.1721 16.5277L10.5652 17.2252L9.04836 20.4408C9.04836 20.4408 10.3834 23.3977 10.4434 23.3977C10.5034 23.3977 11.2627 23.4577 11.2627 23.4577L13.9627 20.4389L14.6452 15.2827L12.1721 16.5277Z" fill="#A02422"/>
<path d="M10.594 18.9072C10.594 18.9072 11.4884 18.7253 12.1259 18.4216C12.7634 18.1178 13.5509 17.6641 13.5509 17.6641L13.2621 20.1822L10.4403 23.3941C10.4403 23.3941 10.3296 23.2572 9.8609 22.2372C9.48777 21.4234 9.3584 21.1328 9.3584 21.1328L10.594 18.9072Z" fill="#CA2C31"/>
<path d="M5.92125 15.1241C5.92125 15.1241 4.845 15.0341 3.66563 16.5247C2.58938 17.886 2.085 20.1022 1.89 20.6722C1.695 21.2422 1.22813 21.3585 1.38375 21.6191C1.53938 21.8797 2.2125 21.8647 3.04313 21.7616C3.87375 21.6585 4.58625 21.3978 4.58625 21.3978C4.58625 21.3978 4.55063 21.4878 4.43063 21.6828C4.3875 21.7522 4.2375 21.8516 4.24875 21.9547C4.275 22.2003 6.37875 22.206 8.05875 20.4772C9.87375 18.6116 8.9925 17.0816 8.9925 17.0816L5.92125 15.1241Z" fill="#F7D74D"/>
<path d="M6.24561 15.9922C6.24561 15.9922 5.08498 16.0541 4.12498 17.5447C3.16498 19.0353 2.71873 20.7622 2.81061 20.8784C2.90061 20.9947 4.68936 20.3478 5.11873 20.4772C5.41311 20.5672 5.26123 20.8653 5.33998 20.9441C5.40561 21.0097 6.18186 21.1203 7.43811 19.7591C8.69623 18.3978 8.39811 16.4853 8.39811 16.4853L6.24561 15.9922Z" fill="#FBF0B4"/>
<path d="M6.81521 13.957C6.81521 13.957 6.23208 14.4764 6.02396 14.7745C5.81583 15.0727 5.81583 15.0989 5.82896 15.1889C5.84208 15.2789 6.05771 16.267 6.95583 17.1333C8.05833 18.1964 9.04271 18.3389 9.18521 18.3389C9.32771 18.3389 10.2746 17.2758 10.2746 17.2758L6.81521 13.957Z" fill="#858585"/>
<path d="M9.39355 17.1079C9.39355 17.1079 10.3386 17.7285 11.9229 17.196C14.0886 16.4685 15.6767 14.841 17.6436 12.786C19.5411 10.8023 21.1329 8.34039 21.1329 8.34039L20.0173 4.60352L9.39355 17.1079Z" fill="#437687"/>
<path d="M12.748 15.062L13.0087 14.252L13.6612 14.3438C13.6612 14.3438 14.158 14.5782 14.5237 14.7488C14.8893 14.9195 15.3599 15.0488 15.3599 15.0488L14.4318 15.8326C14.4318 15.8326 13.9255 15.6413 13.5562 15.4801C13.1399 15.2982 12.748 15.062 12.748 15.062Z" fill="#3F545F"/>
<path d="M15.8096 3.02539C15.8096 3.02539 14.0059 4.07164 11.4202 6.51852C9.08961 8.72352 7.36274 10.7185 6.94461 12.4154C6.59586 13.8366 6.78149 14.6991 7.57461 15.631C8.41274 16.6173 9.39524 17.1066 9.39524 17.1066C9.39524 17.1066 10.134 17.1179 13.2165 14.746C17.0621 11.7854 20.1427 6.82789 20.1427 6.82789L15.8096 3.02539Z" fill="#8DAFBF"/>
<path d="M19.5335 7.84411C19.5335 7.84411 17.9641 7.17474 16.8447 5.61286C15.7329 4.06224 15.821 3.01411 15.821 3.01411C15.821 3.01411 16.751 2.28474 18.8416 1.45036C20.2479 0.889738 22.1622 0.602863 22.7922 1.06974C23.4222 1.53661 22.361 3.87849 22.361 3.87849L20.4279 7.62099L19.5335 7.84411Z" fill="#D83F22"/>
<path d="M12.7816 15.0753C12.7816 15.0753 11.426 14.3834 10.5635 13.3991C8.93223 11.5409 8.59473 9.50094 8.59473 9.50094L9.4141 8.53906C9.4141 8.53906 9.61848 10.7066 11.3679 12.5797C12.5079 13.8003 13.6985 14.3591 13.6985 14.3591C13.6985 14.3591 13.4604 14.5597 13.2054 14.7547C13.0422 14.8803 12.7816 15.0753 12.7816 15.0753Z" fill="#6896A5"/>
<path d="M21.1336 8.34031C21.1336 8.34031 21.9473 7.35969 22.7179 5.14906C23.7942 2.06656 22.8567 1.13281 22.8567 1.13281C22.8567 1.13281 22.5398 2.59906 21.4392 4.63719C20.5561 6.27031 19.4873 7.82469 19.4873 7.82469C19.4873 7.82469 20.0761 8.08906 20.3948 8.18094C20.7961 8.29719 21.1336 8.34031 21.1336 8.34031Z" fill="#A02422"/>
<path d="M7.46426 13.0603C7.70801 13.2928 8.07739 13.0491 8.31926 12.4791C8.56301 11.9091 8.55926 11.5903 8.37176 11.4553C8.13926 11.2866 7.74926 11.6559 7.57864 11.9841C7.39114 12.3478 7.28051 12.8841 7.46426 13.0603ZM15.928 3.77344C15.928 3.77344 14.5011 4.79906 12.9786 6.19406C11.5818 7.47469 10.6555 8.47594 10.528 8.70844C10.393 8.95781 10.3911 9.31031 10.4961 9.49031C10.6011 9.67031 10.8336 9.76406 11.0455 9.60656C11.2574 9.44719 12.7668 7.77844 14.1299 6.58594C15.3768 5.49469 16.3386 4.80281 16.3386 4.80281C16.3386 4.80281 16.7286 4.11281 16.6649 3.95531C16.6011 3.79594 15.928 3.77344 15.928 3.77344Z" fill="#B3E1EE"/>
<path d="M15.9277 3.7735C15.9277 3.7735 16.9815 2.96537 18.129 2.39725C19.1959 1.8685 20.2571 1.42787 20.4484 1.81037C20.6302 2.17412 19.4415 2.66912 18.3952 3.33662C17.349 4.00412 16.3421 4.801 16.3421 4.801C16.3421 4.801 16.1884 4.51975 16.089 4.25912C16.0261 4.10044 15.9722 3.9383 15.9277 3.7735Z" fill="#ED6A65"/>
<path d="M16.7978 7.36008C15.7535 6.3982 14.3003 6.65695 13.5841 7.51195C12.8491 8.3932 12.9035 9.73945 13.7716 10.5494C14.561 11.2844 16.0291 11.4513 16.9141 10.4201C17.7016 9.50507 17.6528 8.1457 16.7978 7.36008Z" fill="#E1E1E1"/>
<path d="M14.1247 7.85007C13.5041 8.45945 13.5378 9.66695 14.2766 10.2182C14.9216 10.7001 15.8366 10.6757 16.4103 10.0888C16.9841 9.50195 16.9841 8.43507 16.4459 7.88382C15.8272 7.25195 14.8353 7.15257 14.1247 7.85007Z" fill="#3F545F"/>
<path d="M9.37503 14.4171C9.37503 14.4171 10.5357 13.2396 10.6632 13.3671C10.7907 13.4946 10.7738 14.209 10.2188 15.004C9.66191 15.799 8.43753 17.2146 7.46816 18.169C6.51191 19.1083 5.16378 20.1827 5.03628 20.164C4.93691 20.149 4.53378 19.9483 4.37253 19.7533C4.21503 19.5602 4.68566 18.6471 4.87503 18.3452C5.06628 18.0433 9.37503 14.4171 9.37503 14.4171Z" fill="#A02524"/>
<path d="M3.98087 19.0969C3.96587 19.3669 4.37837 19.7607 4.37837 19.7607L10.6634 13.3688C10.6634 13.3688 10.369 13.0369 9.50274 13.575C8.62899 14.1188 7.86399 14.7713 6.73524 15.8644C5.16212 17.3907 3.99587 18.8269 3.98087 19.0969Z" fill="#CA2C31"/>
<path d="M3.57376 6.92823C3.36563 7.13635 3.35626 7.4701 3.58876 7.66135C3.79501 7.83198 4.13063 7.72135 4.25626 7.5676C4.38188 7.41385 4.36688 7.0801 4.20001 6.9151C4.03313 6.74823 3.70126 6.8026 3.57376 6.92823Z" fill="white"/>
<path opacity="0.5" d="M7.6914 6.68453C7.5339 6.8589 7.58453 7.11765 7.73078 7.21328C7.87703 7.3089 8.0964 7.29953 8.20328 7.16828C8.2989 7.05015 8.31015 6.8139 8.1639 6.66765C8.0364 6.54203 7.79265 6.57203 7.6914 6.68453Z" fill="white"/>
<path d="M10.4158 2.22842C10.4158 2.22842 10.6445 1.57592 10.7795 1.56842C10.9164 1.56092 11.1133 2.22092 11.1133 2.22092C11.1133 2.22092 11.7901 2.22842 11.8351 2.3278C11.8933 2.4553 11.402 2.8828 11.402 2.8828C11.402 2.8828 11.5614 3.5203 11.4864 3.59717C11.402 3.68155 10.8189 3.34592 10.8189 3.34592C10.8189 3.34592 10.2189 3.76405 10.0895 3.64967C9.97702 3.5503 10.2114 2.8753 10.2114 2.8753C10.2114 2.8753 9.64889 2.46467 9.67889 2.3503C9.72202 2.18905 10.4158 2.22842 10.4158 2.22842ZM18.1895 17.8734C18.4164 17.999 18.7014 17.9278 18.8064 17.6859C18.902 17.4703 18.7258 17.2134 18.5664 17.144C18.407 17.0747 18.1276 17.1665 18.0264 17.3484C17.927 17.5284 18.0526 17.7984 18.1895 17.8734ZM21.4108 12.344C21.2814 12.1434 21.002 12.0778 20.8201 12.239C20.6439 12.3965 20.687 12.644 20.7864 12.7697C20.8858 12.8953 21.152 12.9422 21.3133 12.839C21.4745 12.7359 21.4895 12.464 21.4108 12.344Z" fill="white"/>
</g>
<defs>
<clipPath id="clip0_3041_18044">
<rect width="24" height="24" fill="white"/>
</clipPath>
</defs>
</svg>

<svg xmlns="http://www.w3.org/2000/svg" width="24" height="24" fill="none"><g clip-path="url(#a)"><path fill="#CA2C31" d="m.707 13.449 3.064-3.019 5.216-.924-.516 2.73-7.051 2.167-.456-.197z"/><path fill="#A02422" d="M4.3 11.205.976 14.227l2.446 1.192 3.715-1.895v-.894l.76-2.048zm7.872 5.323-1.607.697-1.517 3.216s1.335 2.957 1.395 2.957.82.06.82.06l2.7-3.02.682-5.155z"/><path fill="#CA2C31" d="M10.594 18.907s.894-.182 1.532-.485c.637-.304 1.425-.758 1.425-.758l-.289 2.518-2.822 3.212s-.11-.137-.58-1.157c-.372-.814-.502-1.104-.502-1.104z"/><path fill="#F7D74D" d="M5.921 15.124s-1.076-.09-2.255 1.4c-1.077 1.362-1.581 3.578-1.776 4.148s-.662.686-.506.947c.155.26.829.246 1.66.143.83-.104 1.542-.364 1.542-.364s-.035.09-.155.285c-.043.07-.194.169-.182.272.026.245 2.13.251 3.81-1.478 1.815-1.865.934-3.395.934-3.395z"/><path fill="#FBF0B4" d="M6.246 15.992s-1.161.062-2.121 1.553-1.406 3.217-1.314 3.333c.09.117 1.878-.53 2.308-.4.294.09.142.387.221.466.066.066.842.176 2.098-1.185 1.258-1.361.96-3.274.96-3.274z"/><path fill="#858585" d="M6.815 13.957s-.583.52-.791.817c-.208.299-.208.325-.195.415s.229 1.078 1.127 1.944c1.102 1.063 2.087 1.206 2.23 1.206s1.089-1.063 1.089-1.063z"/><path fill="#437687" d="M9.394 17.108s.945.62 2.529.088c2.166-.728 3.754-2.355 5.72-4.41 1.898-1.984 3.49-4.446 3.49-4.446l-1.116-3.736z"/><path fill="#3F545F" d="m12.748 15.062.26-.81.653.092.863.405c.365.17.836.3.836.3l-.928.784s-.507-.192-.876-.353c-.416-.182-.808-.418-.808-.418"/><path fill="#8DAFBF" d="M15.81 3.025s-1.804 1.047-4.39 3.494c-2.33 2.205-4.057 4.2-4.475 5.896-.35 1.422-.164 2.284.63 3.216.838.986 1.82 1.476 1.82 1.476s.739.01 3.822-2.361c3.845-2.96 6.926-7.918 6.926-7.918z"/><path fill="#D83F22" d="M19.534 7.844s-1.57-.67-2.69-2.231c-1.111-1.55-1.023-2.599-1.023-2.599s.93-.73 3.02-1.564c1.407-.56 3.321-.847 3.951-.38s-.431 2.808-.431 2.808l-1.933 3.743z"/><path fill="#6896A5" d="M12.782 15.075s-1.356-.692-2.219-1.676c-1.63-1.858-1.968-3.898-1.968-3.898l.82-.962s.203 2.168 1.953 4.04c1.14 1.221 2.33 1.78 2.33 1.78s-.238.2-.493.396c-.163.125-.423.32-.423.32"/><path fill="#A02422" d="M21.134 8.34s.813-.98 1.584-3.19c1.076-3.083.139-4.017.139-4.017s-.317 1.466-1.418 3.504a40 40 0 0 1-1.952 3.188s.59.264.908.356c.401.116.739.16.739.16"/><path fill="#B3E1EE" d="M7.464 13.06c.244.233.613-.01.855-.58.244-.57.24-.89.053-1.025-.233-.168-.623.2-.793.53-.188.363-.298.9-.115 1.075m8.464-9.287s-1.427 1.026-2.95 2.421c-1.396 1.28-2.322 2.282-2.45 2.514-.135.25-.137.602-.032.782s.338.274.55.117c.211-.16 1.72-1.829 3.084-3.021 1.247-1.091 2.209-1.783 2.209-1.783s.39-.69.326-.848c-.064-.16-.737-.182-.737-.182"/><path fill="#ED6A65" d="M15.928 3.774s1.053-.809 2.201-1.377c1.067-.528 2.128-.97 2.32-.587.181.364-1.008.86-2.054 1.527S16.342 4.8 16.342 4.8s-.154-.281-.253-.542a5 5 0 0 1-.161-.486"/><path fill="#E1E1E1" d="M16.798 7.36a2.224 2.224 0 0 0-3.214.152 2.225 2.225 0 0 0 .188 3.037c.789.735 2.257.902 3.142-.129.788-.915.739-2.274-.116-3.06"/><path fill="#3F545F" d="M14.125 7.85c-.62.61-.587 1.817.152 2.368.645.482 1.56.458 2.133-.13.574-.586.574-1.653.036-2.204-.619-.632-1.61-.731-2.321-.034"/><path fill="#A02524" d="M9.375 14.417s1.16-1.177 1.288-1.05c.128.128.11.842-.444 1.637-.557.795-1.781 2.21-2.75 3.165-.957.94-2.305 2.014-2.433 1.995-.1-.015-.502-.216-.663-.41-.158-.194.313-1.107.502-1.409.191-.302 4.5-3.928 4.5-3.928"/><path fill="#CA2C31" d="M3.98 19.097c-.014.27.398.664.398.664l6.285-6.392s-.294-.332-1.16.206c-.874.544-1.639 1.196-2.768 2.29-1.573 1.526-2.74 2.962-2.754 3.232"/><path fill="#fff" d="M3.574 6.928c-.208.208-.218.542.015.733.206.171.542.06.667-.093.126-.154.11-.488-.056-.653-.167-.167-.499-.112-.626.013"/><path fill="#fff" d="M7.691 6.685c-.157.174-.106.433.04.528s.365.087.472-.045a.395.395 0 0 0-.04-.5c-.127-.126-.37-.096-.472.017" opacity=".5"/><path fill="#fff" d="M10.416 2.228s.229-.652.364-.66c.136-.007.333.653.333.653s.677.007.722.107c.058.127-.433.555-.433.555s.16.637.084.714c-.084.085-.667-.251-.667-.251s-.6.418-.73.304c-.112-.1.122-.775.122-.775s-.562-.41-.532-.525c.043-.161.737-.122.737-.122m7.773 15.645c.227.126.512.055.617-.187.096-.216-.08-.473-.24-.542s-.438.023-.54.204c-.099.18.027.45.163.525m3.222-5.529c-.13-.2-.409-.266-.59-.105-.177.157-.134.405-.035.53.1.126.366.173.527.07s.177-.375.098-.495"/></g><defs><clipPath id="a"><path fill="#fff" d="M0 0h24v24H0z"/></clipPath></defs></svg>
